files/2/64x64/places/folder-pictures.svg

<?xml version="1.0" encoding="UTF-8" standalone="no"?>
<svg
   xmlns:dc="http://purl.org/dc/elements/1.1/"
   xmlns:cc="http://creativecommons.org/ns#"
   xmlns:rdf="http://www.w3.org/1999/02/22-rdf-syntax-ns#"
   xmlns:svg="http://www.w3.org/2000/svg"
   xmlns="http://www.w3.org/2000/svg"
   xmlns:sodipodi="http://sodipodi.sourceforge.net/DTD/sodipodi-0.dtd"
   xmlns:inkscape="http://www.inkscape.org/namespaces/inkscape"
   width="64"
   height="64"
   viewBox="0 0 64 64"
   id="svg3157"
   version="1.1"
   inkscape:version="0.48.4 r9939"
   sodipodi:docname="folder-pictures.svg">
  <metadata
     id="metadata3185">
    <rdf:RDF>
      <cc:Work
         rdf:about="">
        <dc:format>image/svg+xml</dc:format>
        <dc:type
           rdf:resource="http://purl.org/dc/dcmitype/StillImage" />
      </cc:Work>
    </rdf:RDF>
  </metadata>
  <defs
     id="defs3183" />
  <sodipodi:namedview
     pagecolor="#ffffff"
     bordercolor="#666666"
     borderopacity="1"
     objecttolerance="10"
     gridtolerance="10"
     guidetolerance="10"
     inkscape:pageopacity="0"
     inkscape:pageshadow="2"
     inkscape:window-width="658"
     inkscape:window-height="480"
     id="namedview3181"
     showgrid="false"
     inkscape:zoom="3.6875"
     inkscape:cx="56.677966"
     inkscape:cy="23.59322"
     inkscape:window-x="0"
     inkscape:window-y="0"
     inkscape:window-maximized="0"
     inkscape:current-layer="svg3157" />
  <path
     inkscape:connector-curvature="0"
     id="path3009"
     d="M 8.691406,51 C 7.773438,50.90625 7,49.984376 7,48.996094 L 7,11.011718 C 7,9.9609376 7.890624,8.9999996 8.875,8.9999996 l 46.25,0 c 0.984376,0 1.875,0.960938 1.875,2.0117184 l 0,32.472658 c 0,1.054686 -1.4375,2.566406 -2.417968,2.566406 l -16.929688,-0.03126 0,2.648436 c 0,1.046876 -0.82422,2.332032 -1.800782,2.332032 L 8.875,51 c -0.05859,0 -0.117188,0 -0.183594,0 z"
     style="fill:#e9a439;fill-opacity:1;stroke:#e9a439;stroke-width:2;stroke-opacity:1" />
  <path
     inkscape:connector-curvature="0"
     id="path3011"
     d="M 3.097656,13 C 1.960938,13.09375 1,14.015624 1,15.003906 L 1,52.988282 C 1,54.039062 2.105468,55 3.324218,55 l 57.351564,0 C 61.894532,55 63,54.039062 63,52.988282 l 0,-32.472658 c 0,-1.054686 -1.78125,-2.566406 -3,-2.566406 l -20.992188,0.03125 0,-2.648436 C 39.007812,14.285156 37.988282,13 36.773438,13 l -33.44922,0 c -0.07031,0 -0.14453,0 -0.226562,0 z"
     style="fill:#f5c14e;fill-opacity:1;stroke:#e9a439;stroke-width:2;stroke-opacity:1" />
  <path
     style="fill:#d0a444;fill-opacity:1"
     inkscape:connector-curvature="0"
     id="path3167"
     d="m 23.382812,26 c -0.703124,0.06641 -1.308593,0.804688 -1.292968,1.597656 l 0,16.839844 c 0.0039,0.828125 0.671875,1.578125 1.40625,1.5625 l 17.132812,0 C 41.355469,45.992188 41.992188,45.253906 42,44.4375 L 42,27.597656 C 42.015625,26.769531 41.371094,26.007812 40.628906,26 z M 24,28 l 16,0 0,14 -16,0 z" />
  <g
     id="g3169"
     style="fill:#d0a444;fill-rule:evenodd;fill-opacity:1">
    <path
       inkscape:connector-curvature="0"
       id="path3171"
       d="m 22.050781,39.039062 c 0.285157,-0.203124 0.953125,-0.835937 2.042969,-1.910156 1.085938,-1.09375 2.535156,-2.578125 4.410156,-4.535156 1.230469,1.75 2.132813,3.011719 2.800782,3.839844 0.652343,0.820312 1.019531,1.179687 1.105468,1.074218 0.695313,-0.621093 1.273438,-1.148437 1.78125,-1.609374 0.496094,-0.460938 0.878906,-0.84375 1.1875,-1.152344 1.53125,1.921875 2.789063,3.503906 3.902344,4.835937 1.09375,1.328125 1.957031,2.328125 2.628906,3.070313 l -4.152344,-3.449219 c -0.34375,0.878906 -0.90625,1.339844 -1.699218,1.375 C 35.238281,40.601562 34,39.613281 33.003906,39.429688 c -1.003906,-0.183594 -2,0.378906 -2.886718,0.07812 -0.910157,-0.320312 -1.613282,-1.597656 -2.460938,-1.917968 -0.859375,-0.328125 -1.722656,-0.328125 -2.628906,0 -0.992188,0.484375 -1.980469,0.96875 -2.976563,1.449218 z"
       style="fill:#d0a444;fill-opacity:1" />
    <path
       inkscape:connector-curvature="0"
       id="path3173"
       d="m 22,38.378906 c 0.285156,-0.210937 0.945312,-0.832031 2.035156,-1.917968 1.085938,-1.082032 2.535156,-2.570313 4.410156,-4.527344 1.230469,1.742187 2.132813,3.011718 2.808594,3.839844 0.652344,0.820312 1.011719,1.171874 1.097656,1.078124 0.695313,-0.625 1.28125,-1.152343 1.78125,-1.613281 0.496094,-0.46875 0.886719,-0.851562 1.1875,-1.152343 1.53125,1.921874 2.796876,3.503906 3.902344,4.835937 1.09375,1.328125 1.964844,2.332031 2.628906,3.070313 L 37.699219,38.535156 C 37.355469,39.429688 36.796875,39.875 36,39.917969 c -0.804688,0.03125 -2.050781,-0.972657 -3.054688,-1.148438 -1.003906,-0.183593 -1.992187,0.378907 -2.886718,0.07422 -0.902344,-0.324219 -1.605469,-1.582031 -2.460938,-1.914062 -0.859375,-0.328126 -1.714844,-0.328126 -2.628906,0 C 23.976562,37.414063 22.988281,37.898439 22,38.38672 z"
       style="fill:#d0a444;fill-opacity:1" />
  </g>
  <path
     style="fill:#d0a444;fill-opacity:1"
     inkscape:connector-curvature="0"
     id="path3175"
     d="m 25.816406,37.253906 9.941406,0 c 1.378907,0 2.5,1.121094 2.5,2.496094 l 0,1.253906 c 0,1.375 -1.121093,2.496094 -2.5,2.496094 l -9.941406,0 c -1.375,0 -2.496094,-1.121094 -2.496094,-2.496094 l 0,-1.253906 c 0,-1.375 1.121094,-2.496094 2.496094,-2.496094 z" />
  <path
     style="fill:#d0a444;fill-opacity:1"
     inkscape:connector-curvature="0"
     id="path3177"
     d="m 38.261719,39.75 1.234375,0 c 0.6875,0 1.25,0.558594 1.25,1.253906 0,0.6875 -0.5625,1.246094 -1.25,1.246094 l -1.234375,0 c -0.6875,0 -1.25,-0.558594 -1.25,-1.246094 0,-0.695312 0.5625,-1.253906 1.25,-1.253906 z" />
  <path
     style="fill:#d0a444;fill-opacity:1"
     inkscape:connector-curvature="0"
     id="path3179"
     d="m 37.046875,38.652344 1.238281,0 c 0.34375,0 0.628906,0.285156 0.628906,0.628906 l 0,1.246094 c 0,0.34375 -0.285156,0.628906 -0.628906,0.628906 l -1.238281,0 c -0.34375,0 -0.621094,-0.285156 -0.621094,-0.628906 l 0,-1.246094 c 0,-0.34375 0.277344,-0.628906 0.621094,-0.628906 z" />
</svg>

<svg width="64" xmlns="http://www.w3.org/2000/svg" height="64" viewBox="0 0 64 64" xmlns:xlink="http://www.w3.org/1999/xlink">
<g style="stroke:#e9a439">
<path style="fill:#e9a439" d="M 4.345703 24.5 C 3.886719 24.453125 3.5 23.992188 3.5 23.498047 L 3.5 4.505859 C 3.5 3.980469 3.945312 3.5 4.4375 3.5 L 27.5625 3.5 C 28.054688 3.5 28.5 3.980469 28.5 4.505859 L 28.5 20.742188 C 28.5 21.269531 27.78125 22.025391 27.291016 22.025391 L 18.826172 22.009766 L 18.826172 23.333984 C 18.826172 23.857422 18.414062 24.5 17.925781 24.5 L 4.4375 24.5 C 4.408203 24.5 4.378906 24.5 4.345703 24.5 Z " transform="matrix(2 0 0 2 0 2)"/>
<path style="fill:#f5c14e" d="M 1.548828 5.5 C 0.980469 5.546875 0.5 6.007812 0.5 6.501953 L 0.5 25.494141 C 0.5 26.019531 1.052734 26.5 1.662109 26.5 L 30.337891 26.5 C 30.947266 26.5 31.5 26.019531 31.5 25.494141 L 31.5 9.257812 C 31.5 8.730469 30.609375 7.974609 30 7.974609 L 19.503906 7.990234 L 19.503906 6.666016 C 19.503906 6.142578 18.994141 5.5 18.386719 5.5 L 1.662109 5.5 C 1.626953 5.5 1.589844 5.5 1.548828 5.5 Z " transform="matrix(2 0 0 2 0 2)"/>
</g>
<g style="fill:#e9a439">
<path d="M 23.382812 26 C 22.679688 26.066406 22.074219 26.804688 22.089844 27.597656 L 22.089844 44.4375 C 22.09375 45.265625 22.761719 46.015625 23.496094 46 L 40.628906 46 C 41.355469 45.992188 41.992188 45.253906 42 44.4375 L 42 27.597656 C 42.015625 26.769531 41.371094 26.007812 40.628906 26 Z M 24 28 L 40 28 L 40 42 L 24 42 Z "/>
<g style="fill-rule:evenodd">
<path d="M 22.050781 39.039062 C 22.335938 38.835938 23.003906 38.203125 24.09375 37.128906 C 25.179688 36.035156 26.628906 34.550781 28.503906 32.59375 C 29.734375 34.34375 30.636719 35.605469 31.304688 36.433594 C 31.957031 37.253906 32.324219 37.613281 32.410156 37.507812 C 33.105469 36.886719 33.683594 36.359375 34.191406 35.898438 C 34.6875 35.4375 35.070312 35.054688 35.378906 34.746094 C 36.910156 36.667969 38.167969 38.25 39.28125 39.582031 C 40.375 40.910156 41.238281 41.910156 41.910156 42.652344 L 37.757812 39.203125 C 37.414062 40.082031 36.851562 40.542969 36.058594 40.578125 C 35.238281 40.601562 34 39.613281 33.003906 39.429688 C 32 39.246094 31.003906 39.808594 30.117188 39.507812 C 29.207031 39.1875 28.503906 37.910156 27.65625 37.589844 C 26.796875 37.261719 25.933594 37.261719 25.027344 37.589844 C 24.035156 38.074219 23.046875 38.558594 22.050781 39.039062 Z "/>
<path d="M 22 38.378906 C 22.285156 38.167969 22.945312 37.546875 24.035156 36.460938 C 25.121094 35.378906 26.570312 33.890625 28.445312 31.933594 C 29.675781 33.675781 30.578125 34.945312 31.253906 35.773438 C 31.90625 36.59375 32.265625 36.945312 32.351562 36.851562 C 33.046875 36.226562 33.632812 35.699219 34.132812 35.238281 C 34.628906 34.769531 35.019531 34.386719 35.320312 34.085938 C 36.851562 36.007812 38.117188 37.589844 39.222656 38.921875 C 40.316406 40.25 41.1875 41.253906 41.851562 41.992188 L 37.699219 38.535156 C 37.355469 39.429688 36.796875 39.875 36 39.917969 C 35.195312 39.949219 33.949219 38.945312 32.945312 38.769531 C 31.941406 38.585938 30.953125 39.148438 30.058594 38.84375 C 29.15625 38.519531 28.453125 37.261719 27.597656 36.929688 C 26.738281 36.601562 25.882812 36.601562 24.96875 36.929688 C 23.976562 37.414062 22.988281 37.898438 22 38.386719 Z "/>
</g>
<path d="M 25.816406 37.253906 L 35.757812 37.253906 C 37.136719 37.253906 38.257812 38.375 38.257812 39.75 L 38.257812 41.003906 C 38.257812 42.378906 37.136719 43.5 35.757812 43.5 L 25.816406 43.5 C 24.441406 43.5 23.320312 42.378906 23.320312 41.003906 L 23.320312 39.75 C 23.320312 38.375 24.441406 37.253906 25.816406 37.253906 Z "/>
<path d="M 38.261719 39.75 L 39.496094 39.75 C 40.183594 39.75 40.746094 40.308594 40.746094 41.003906 C 40.746094 41.691406 40.183594 42.25 39.496094 42.25 L 38.261719 42.25 C 37.574219 42.25 37.011719 41.691406 37.011719 41.003906 C 37.011719 40.308594 37.574219 39.75 38.261719 39.75 Z "/>
<path d="M 37.046875 38.652344 L 38.285156 38.652344 C 38.628906 38.652344 38.914062 38.9375 38.914062 39.28125 L 38.914062 40.527344 C 38.914062 40.871094 38.628906 41.15625 38.285156 41.15625 L 37.046875 41.15625 C 36.703125 41.15625 36.425781 40.871094 36.425781 40.527344 L 36.425781 39.28125 C 36.425781 38.9375 36.703125 38.652344 37.046875 38.652344 Z "/>
</g>
</svg>
